build/img/glasses.svg

<svg width="36" height="21" viewBox="0 0 36 21" fill="none" xmlns="http://www.w3.org/2000/svg">
<path d="M12.6763 6.16451C10.0554 6.16451 7.9231 8.3408 7.9231 11.0158C7.9231 13.6908 10.0554 15.867 12.6763 15.867C15.2973 15.867 17.4296 13.6908 17.4296 11.0158C17.4295 8.3408 15.2972 6.16451 12.6763 6.16451ZM12.6763 14.1747C10.9696 14.1747 9.58122 12.7577 9.58122 11.0158C9.58122 9.27386 10.9699 7.85683 12.6763 7.85683C14.3831 7.85683 15.7714 9.27386 15.7714 11.0158C15.7714 12.7577 14.383 14.1747 12.6763 14.1747Z" fill="white"/>
<path d="M24.7527 6.16451C22.1318 6.16451 19.9998 8.3408 19.9998 11.0158C19.9998 13.6908 22.1321 15.867 24.7527 15.867C27.3736 15.867 29.5059 13.6908 29.5059 11.0158C29.5059 8.3408 27.3736 6.16451 24.7527 6.16451ZM24.7527 14.1747C23.0462 14.1747 21.6578 12.7577 21.6578 11.0158C21.6578 9.27386 23.0462 7.85683 24.7527 7.85683C26.4592 7.85683 27.8478 9.27386 27.8478 11.0158C27.8478 12.7577 26.4595 14.1747 24.7527 14.1747Z" fill="white"/>
<path d="M18.7559 8.59015C17.6681 8.59015 16.6415 9.20192 16.0095 10.2263L17.4125 11.128C17.7439 10.5907 18.2336 10.2824 18.7562 10.2827C19.2348 10.2827 19.6817 10.5465 20.0141 11.0256L21.3671 10.0472C20.7243 9.12125 19.7726 8.59015 18.7559 8.59015Z" fill="white"/>
<path d="M31.5784 10.085H28.6768V11.7773H31.5784V10.085Z" fill="white"/>
<path d="M8.72423 10.085H5.93311V11.7773H8.72423V10.085Z" fill="white"/>
</svg>

<svg width="36" height="21" fill="none" xmlns="http://www.w3.org/2000/svg"><path d="M12.676 6.165c-2.62 0-4.753 2.176-4.753 4.85 0 2.676 2.132 4.852 4.753 4.852s4.754-2.176 4.754-4.851-2.133-4.851-4.754-4.851zm0 8.01c-1.706 0-3.095-1.417-3.095-3.16 0-1.741 1.389-3.158 3.095-3.158 1.707 0 3.095 1.417 3.095 3.159 0 1.742-1.388 3.159-3.095 3.159zm12.077-8.01C22.132 6.165 20 8.34 20 11.015c0 2.676 2.132 4.852 4.753 4.852 2.62 0 4.753-2.176 4.753-4.851s-2.132-4.851-4.753-4.851zm0 8.01c-1.707 0-3.095-1.417-3.095-3.16 0-1.741 1.388-3.158 3.095-3.158 1.706 0 3.095 1.417 3.095 3.159 0 1.742-1.389 3.159-3.095 3.159z" fill="#fff"/><path d="M18.756 8.59c-1.088 0-2.114.612-2.747 1.636l1.404.902c.33-.537.82-.846 1.343-.845.479 0 .926.264 1.258.743l1.353-.979c-.643-.926-1.594-1.457-2.611-1.457zm12.822 1.495h-2.901v1.692h2.901v-1.692zm-22.854 0h-2.79v1.692h2.79v-1.692z" fill="#fff"/></svg>
